!!!COM: radiohead
!!!OTL: killer-cars
!!!RNB: hooktheoryid: veWxLbvqmaK
**kern	**text
*clefG2	*
*k[f#]	*
*M4/4	*
=1	=1
4dd	Am
4dd	.
4dd	.
8dd	.
8dd	.
=2	=2
8dd	G/B
8dd	.
8dd	.
4.ee	.
4dd	.
=3	=3
4dd	Cadd9
4dd	.
4dd	.
8dd	.
[8dd	.
=4	=4
4.dd]	D
4.ee	.
8dd	.
8dd	.
=5	=5
4dd	Am
8dd	.
8dd	.
2dd	.
=6	=6
4dd	G/B
8dd	.
4.ee	.
8dd	.
8dd	.
=7	=7
8dd#	Cm
4dd#	.
2dd#	.
8dd#	.
=8	=8
2r	Cm/D#
8b	.
8b	.
4b	.
=9	=9
4a	G
[2.g	.
=10	=10
1g	.
=11	=11
1r	Cm
*-	*-